X:1
T:Hardi les gars d'Plaimpied
C:Bourrée du Berry
O: Berry - France
M:3/4
L:1/4
K: C
G|"C"G/E/DE|G2D/E/|"G7"FEE/F/|"C"ECG|
w: Har-di les gars d'Plaim-pied Pre-nez gar-de, Pre-nez gar-de. Har-
G/E/DE|G2D/E/|"G7"FDB,|"C"C2C|
w:di les gars d'Plaim-pied Pre-nez gard' de tom-ber. Car
EDC|"G7"B,2D/E/|FDD/F/|"C"EB,B,|
w: si vous tom-bez Tout le mon-de, tout le mon-de,  Car
EDC|"G7"B,2D/E/|FDB,|"C"C2:|
w:si vous tom bez Tout le mon-de ri-rait